X: 15060
T: Gerald Thomas' Burnt Potato
R: reel
M: 4/4
K: Eminor
|:gf|eBBB gBBB|ABdB e2 de|GAAA GABd|afdf eBBB|
gfed eBBB|ABdB e2 de|GAAA GABd|1 afdf ee:|2 afdf e2||
|:ef|gaba gfeg|fgag fedf|egbg egaf|
[1 de f/e/d eeef|g2 bg egbb|ffaf dfa2|ggbg f2af|d2 f/e/d e2:|
[2 de f/e/d eegf|eBBB gBBB|ABdB e2 de|GAAA GABd|afdf .ez3||

